X: 41328
T: Turf Lodge, The
R: jig
M: 6/8
K: Amixolydian
|:f2 a e2 f|dfe dBA|Bdd d2 e|faa e2 a|
f2 a efa|fef dBA|Bdd efe|dBA A2a:|
|:Bdd d3|ede f3|Bdd efe|faa e2 a|
Bdd d2 e|ede fed|Bdd efe|dBA A2a:|
|:dBd B2 A|faa f2 e|Bdd d2 e|faa e2 a|
fdf dAd|ede faa|Bdd efe|dBA A2a:|
|:B2 f BfB|fBa f2e|Bdd d2 e|faa e2 a|
B2 f BfB|fBaf2 e|Bdd efe|dBA A2a:|

